svgs/sharp-regular/square-quote.svg

<svg xmlns="http://www.w3.org/2000/svg" viewBox="0 0 448 512"><!--! Font Awesome Pro 6.4.2 by @fontawesome - https://fontawesome.com License - https://fontawesome.com/license (Commercial License) Copyright 2023 Fonticons, Inc. --><path d="M400 80V432H48V80H400zM48 32H0V80 432v48H48 400h48V432 80 32H400 48zM208 160H96V272h64v8c0 13.3-10.7 24-24 24H112v48h24c39.8 0 72-32.2 72-72v-8V216 192 160zm32 0V272h64v8c0 13.3-10.7 24-24 24H256v48h24c39.8 0 72-32.2 72-72v-8V216 192 160H240z"/></svg>

<svg xmlns="http://www.w3.org/2000/svg" viewBox="0 0 448 512"><!--! Font Awesome Pro 6.6.0 by @fontawesome - https://fontawesome.com License - https://fontawesome.com/license (Commercial License) Copyright 2024 Fonticons, Inc. --><path d="M400 80l0 352L48 432 48 80l352 0zM48 32L0 32 0 80 0 432l0 48 48 0 352 0 48 0 0-48 0-352 0-48-48 0L48 32zM208 160L96 160l0 112 64 0 0 8c0 13.3-10.7 24-24 24l-24 0 0 48 24 0c39.8 0 72-32.2 72-72l0-8 0-56 0-24 0-32zm32 0l0 112 64 0 0 8c0 13.3-10.7 24-24 24l-24 0 0 48 24 0c39.8 0 72-32.2 72-72l0-8 0-56 0-24 0-32-112 0z"/></svg>
